Source/WebInspectorUI/UserInterface/Images/gtk/UpDownArrows.svg

<?xml version="1.0" encoding="UTF-8" standalone="no"?>
<!-- Created with Inkscape (http://www.inkscape.org/) -->

<svg
   xmlns:dc="http://purl.org/dc/elements/1.1/"
   xmlns:cc="http://creativecommons.org/ns#"
   xmlns:rdf="http://www.w3.org/1999/02/22-rdf-syntax-ns#"
   xmlns:svg="http://www.w3.org/2000/svg"
   xmlns="http://www.w3.org/2000/svg"
   xmlns:xlink="http://www.w3.org/1999/xlink"
   version="1.1"
   width="5"
   height="12"
   id="svg2987">
  <defs
     id="defs2989">
    <linearGradient
       x1="31.340973"
       y1="235.03157"
       x2="31.340973"
       y2="224.67633"
       id="linearGradient4884-8-0"
       xlink:href="#linearGradient4022-2-0-9-1"
       gradientUnits="userSpaceOnUse"
       gradientTransform="matrix(-1,0,0,1,63,0)" />
    <linearGradient
       id="linearGradient4022-2-0-9-1">
      <stop
         id="stop4024-2-8-8-2"
         style="stop-color:#555753;stop-opacity:1"
         offset="0" />
      <stop
         id="stop4026-8-3-0-8"
         style="stop-color:#babdb6;stop-opacity:1"
         offset="1" />
    </linearGradient>
    <linearGradient
       x1="31.340973"
       y1="235.03157"
       x2="31.340973"
       y2="224.67633"
       id="linearGradient4884"
       xlink:href="#linearGradient4022-2-0"
       gradientUnits="userSpaceOnUse" />
    <linearGradient
       id="linearGradient4022-2-0">
      <stop
         id="stop4024-2-8"
         style="stop-color:#555753;stop-opacity:1"
         offset="0" />
      <stop
         id="stop4026-8-3"
         style="stop-color:#babdb6;stop-opacity:1"
         offset="1" />
    </linearGradient>
    <linearGradient
       id="linearGradient5066">
      <stop
         id="stop5068"
         style="stop-color:#555753;stop-opacity:1"
         offset="0" />
      <stop
         id="stop5070"
         style="stop-color:#888a85;stop-opacity:1"
         offset="1" />
    </linearGradient>
    <linearGradient
       x1="31.340973"
       y1="235.03157"
       x2="31.340973"
       y2="224.67633"
       id="linearGradient3083"
       xlink:href="#linearGradient4022-2-0"
       gradientUnits="userSpaceOnUse" />
    <linearGradient
       x1="31.340973"
       y1="235.03157"
       x2="31.340973"
       y2="224.67633"
       id="linearGradient3097"
       xlink:href="#linearGradient5066"
       gradientUnits="userSpaceOnUse"
       gradientTransform="translate(-22.424752,-224.73565)" />
    <linearGradient
       x1="31.340973"
       y1="235.03157"
       x2="31.340973"
       y2="224.67633"
       id="linearGradient4884-2"
       xlink:href="#linearGradient4022-2-0-4"
       gradientUnits="userSpaceOnUse" />
    <linearGradient
       id="linearGradient4022-2-0-4">
      <stop
         id="stop4024-2-8-9"
         style="stop-color:#555753;stop-opacity:1"
         offset="0" />
      <stop
         id="stop4026-8-3-3"
         style="stop-color:#babdb6;stop-opacity:1"
         offset="1" />
    </linearGradient>
    <linearGradient
       x1="31.340973"
       y1="235.03157"
       x2="31.340973"
       y2="224.67633"
       id="linearGradient4884-0-6-8-7"
       xlink:href="#linearGradient4022-2-0-3-3-5-3"
       gradientUnits="userSpaceOnUse"
       gradientTransform="matrix(0,-1,-1,0,258,257)" />
    <linearGradient
       id="linearGradient4022-2-0-3-3-5-3">
      <stop
         id="stop4024-2-8-3-1-6-2"
         style="stop-color:#555753;stop-opacity:1"
         offset="0" />
      <stop
         id="stop4026-8-3-7-4-9-3"
         style="stop-color:#babdb6;stop-opacity:1"
         offset="1" />
    </linearGradient>
    <linearGradient
       x1="31.340973"
       y1="235.03157"
       x2="31.340973"
       y2="224.67633"
       id="linearGradient4884-0-6"
       xlink:href="#linearGradient4022-2-0-3-3"
       gradientUnits="userSpaceOnUse"
       gradientTransform="matrix(0,-1,1,0,-195,257)" />
    <linearGradient
       id="linearGradient4022-2-0-3-3">
      <stop
         id="stop4024-2-8-3-1"
         style="stop-color:#555753;stop-opacity:1"
         offset="0" />
      <stop
         id="stop4026-8-3-7-4"
         style="stop-color:#babdb6;stop-opacity:1"
         offset="1" />
    </linearGradient>
    <linearGradient
       x1="31.340973"
       y1="235.03157"
       x2="31.340973"
       y2="224.67633"
       id="linearGradient4886-7-3"
       xlink:href="#linearGradient5066-0-5"
       gradientUnits="userSpaceOnUse"
       gradientTransform="matrix(0,-1,1,0,-195,257)" />
    <linearGradient
       id="linearGradient5066-0-5">
      <stop
         id="stop5068-1-4"
         style="stop-color:#555753;stop-opacity:1"
         offset="0" />
      <stop
         id="stop5070-1-9"
         style="stop-color:#888a85;stop-opacity:1"
         offset="1" />
    </linearGradient>
    <linearGradient
       x1="31.340973"
       y1="235.03157"
       x2="31.340973"
       y2="224.67633"
       id="linearGradient4884-0-6-8-7-5"
       xlink:href="#linearGradient4022-2-0-3-3-5-3-2"
       gradientUnits="userSpaceOnUse"
       gradientTransform="matrix(0,-1,-1,0,258,257)" />
    <linearGradient
       id="linearGradient4022-2-0-3-3-5-3-2">
      <stop
         id="stop4024-2-8-3-1-6-2-3"
         style="stop-color:#555753;stop-opacity:1"
         offset="0" />
      <stop
         id="stop4026-8-3-7-4-9-3-5"
         style="stop-color:#babdb6;stop-opacity:1"
         offset="1" />
    </linearGradient>
    <linearGradient
       x1="31.340973"
       y1="235.03157"
       x2="31.340973"
       y2="224.67633"
       id="linearGradient4886-7-3-4-8"
       xlink:href="#linearGradient5066-0-5-9-0"
       gradientUnits="userSpaceOnUse"
       gradientTransform="matrix(0,-1,-1,0,258,257)" />
    <linearGradient
       id="linearGradient5066-0-5-9-0">
      <stop
         id="stop5068-1-4-8-0"
         style="stop-color:#555753;stop-opacity:1"
         offset="0" />
      <stop
         id="stop5070-1-9-9-9"
         style="stop-color:#888a85;stop-opacity:1"
         offset="1" />
    </linearGradient>
    <linearGradient
       x1="31.340973"
       y1="235.03157"
       x2="31.340973"
       y2="224.67633"
       id="linearGradient3595"
       xlink:href="#linearGradient5066-0-5"
       gradientUnits="userSpaceOnUse"
       gradientTransform="matrix(0,-1,1,0,-195,257)" />
    <linearGradient
       x1="31.340973"
       y1="235.03157"
       x2="31.340973"
       y2="224.67633"
       id="linearGradient3597"
       xlink:href="#linearGradient4022-2-0-3-3"
       gradientUnits="userSpaceOnUse"
       gradientTransform="matrix(0,-1,1,0,-195,257)" />
    <linearGradient
       x1="31.340973"
       y1="235.03157"
       x2="31.340973"
       y2="224.67633"
       id="linearGradient3599"
       xlink:href="#linearGradient5066-0-5-9-0"
       gradientUnits="userSpaceOnUse"
       gradientTransform="matrix(0,-1,-1,0,258,257)" />
    <linearGradient
       x1="31.340973"
       y1="235.03157"
       x2="31.340973"
       y2="224.67633"
       id="linearGradient3601"
       xlink:href="#linearGradient4022-2-0-3-3-5-3-2"
       gradientUnits="userSpaceOnUse"
       gradientTransform="matrix(0,-1,-1,0,258,257)" />
    <linearGradient
       x1="31.340973"
       y1="235.03157"
       x2="31.340973"
       y2="224.67633"
       id="linearGradient3621"
       xlink:href="#linearGradient5066-0-5-9-0"
       gradientUnits="userSpaceOnUse"
       gradientTransform="matrix(0,-1,-1,0,258,257)" />
    <linearGradient
       x1="31.340973"
       y1="235.03157"
       x2="31.340973"
       y2="224.67633"
       id="linearGradient3623"
       xlink:href="#linearGradient4022-2-0-3-3-5-3-2"
       gradientUnits="userSpaceOnUse"
       gradientTransform="matrix(0,-1,-1,0,258,257)" />
    <linearGradient
       x1="31.340973"
       y1="235.03157"
       x2="31.340973"
       y2="224.67633"
       id="linearGradient3625"
       xlink:href="#linearGradient5066-0-5"
       gradientUnits="userSpaceOnUse"
       gradientTransform="matrix(0,-1,1,0,-195,257)" />
    <linearGradient
       x1="31.340973"
       y1="235.03157"
       x2="31.340973"
       y2="224.67633"
       id="linearGradient3627"
       xlink:href="#linearGradient4022-2-0-3-3"
       gradientUnits="userSpaceOnUse"
       gradientTransform="matrix(0,-1,1,0,-195,257)" />
    <linearGradient
       x1="31.340973"
       y1="235.03157"
       x2="31.340973"
       y2="224.67633"
       id="linearGradient3645"
       xlink:href="#linearGradient5066-0-5-9-0"
       gradientUnits="userSpaceOnUse"
       gradientTransform="matrix(0,-1,-1,0,258,257)" />
    <linearGradient
       x1="31.340973"
       y1="235.03157"
       x2="31.340973"
       y2="224.67633"
       id="linearGradient3647"
       xlink:href="#linearGradient4022-2-0-3-3-5-3-2"
       gradientUnits="userSpaceOnUse"
       gradientTransform="matrix(0,-1,-1,0,258,257)" />
    <linearGradient
       x1="31.340973"
       y1="235.03157"
       x2="31.340973"
       y2="224.67633"
       id="linearGradient3669"
       xlink:href="#linearGradient5066-0-5"
       gradientUnits="userSpaceOnUse"
       gradientTransform="matrix(0,-1,1,0,-195,257)" />
    <linearGradient
       x1="31.340973"
       y1="235.03157"
       x2="31.340973"
       y2="224.67633"
       id="linearGradient3671"
       xlink:href="#linearGradient4022-2-0-3-3"
       gradientUnits="userSpaceOnUse"
       gradientTransform="matrix(0,-1,1,0,-195,257)" />
    <linearGradient
       x1="31.340973"
       y1="235.03157"
       x2="31.340973"
       y2="224.67633"
       id="linearGradient3673"
       xlink:href="#linearGradient5066-0-5-9-0"
       gradientUnits="userSpaceOnUse"
       gradientTransform="matrix(0,-1,-1,0,258,257)" />
    <linearGradient
       x1="31.340973"
       y1="235.03157"
       x2="31.340973"
       y2="224.67633"
       id="linearGradient3675"
       xlink:href="#linearGradient4022-2-0-3-3-5-3-2"
       gradientUnits="userSpaceOnUse"
       gradientTransform="matrix(0,-1,-1,0,258,257)" />
  </defs>
  <metadata
     id="metadata2992">
    <rdf:RDF>
      <cc:Work
         rdf:about="">
        <dc:format>image/svg+xml</dc:format>
        <dc:type
           rdf:resource="http://purl.org/dc/dcmitype/StillImage" />
        <dc:title></dc:title>
        <cc:license
           rdf:resource="http://creativecommons.org/licenses/by-sa/3.0/" />
      </cc:Work>
      <cc:License
         rdf:about="http://creativecommons.org/licenses/by-sa/3.0/">
        <cc:permits
           rdf:resource="http://creativecommons.org/ns#Reproduction" />
        <cc:permits
           rdf:resource="http://creativecommons.org/ns#Distribution" />
        <cc:requires
           rdf:resource="http://creativecommons.org/ns#Notice" />
        <cc:requires
           rdf:resource="http://creativecommons.org/ns#Attribution" />
        <cc:permits
           rdf:resource="http://creativecommons.org/ns#DerivativeWorks" />
        <cc:requires
           rdf:resource="http://creativecommons.org/ns#ShareAlike" />
      </cc:License>
    </rdf:RDF>
  </metadata>
  <g
     transform="translate(0,-0.115145)"
     id="g3111">
    <path
       d="M 4.75,4.54279 C 4.7329949,4.471374 4.6944209,4.405243 4.6406249,4.35529 l -1.875,-1.875 L 2.5,2.23029 l -0.265625,0.25 -1.875,1.875 C 0.2904611,4.4252355 0.2503188,4.522724 0.25,4.620915 l 0,0.015625 0,0.03125 0,0.328125 0.28124999,0 0.046875,0 C 0.69646289,5.01385 0.82234109,4.97189 0.90624999,4.88654 L 2.5,3.29279 4.1093749,4.88654 c 0.069545,0.069441 0.167348,0.109713 0.265625,0.109375 l 0.078125,0 0.2968751,0 0,-0.296875 0,-0.046875 0,-0.03125 0,-0.046875 z"
       id="path6040"
       style="font-size:medium;font-style:normal;font-variant:normal;font-weight:normal;font-stretch:normal;text-indent:0;text-align:start;text-decoration:none;line-height:normal;letter-spacing:normal;word-spacing:normal;text-transform:none;direction:ltr;block-progression:tb;writing-mode:lr-tb;text-anchor:start;baseline-shift:baseline;color:#000000;fill-opacity:1;stroke:none;stroke-width:2;marker:none;visibility:visible;display:inline;overflow:visible;enable-background:accumulate;font-family:Sans;-inkscape-font-specification:Sans" />
    <path
       d="M 4.75,7.6875 C 4.73299,7.758916 4.69442,7.825047 4.640625,7.875 L 2.765625,9.75 2.5,10 2.234375,9.75 0.359375,7.875 C 0.290465,7.805054 0.250319,7.707566 0.25,7.609375 l 0,-0.015625 0,-0.03125 0,-0.328125 0.28125,0 0.04687,0 C 0.696458,7.21644 0.822336,7.2584 0.906245,7.34375 L 2.499995,8.9375 4.10937,7.34375 C 4.17891,7.274309 4.276718,7.234037 4.374995,7.234375 l 0.07813,0 0.296875,0 0,0.296875 0,0.046875 0,0.03125 0,0.046875 z"
       id="path6040-7"
       style="font-size:medium;font-style:normal;font-variant:normal;font-weight:normal;font-stretch:normal;text-indent:0;text-align:start;text-decoration:none;line-height:normal;letter-spacing:normal;word-spacing:normal;text-transform:none;direction:ltr;block-progression:tb;writing-mode:lr-tb;text-anchor:start;baseline-shift:baseline;color:#000000;fill-opacity:1;stroke:none;stroke-width:2;marker:none;visibility:visible;display:inline;overflow:visible;enable-background:accumulate;font-family:Sans;-inkscape-font-specification:Sans" />
  </g>
</svg>

<?xml version="1.0" encoding="UTF-8" standalone="no"?>
<!-- Licensed under the Creative Commons Attribution-Share Alike 3.0 United States License (http://creativecommons.org/licenses/by-sa/3.0/) -->
<svg xmlns="http://www.w3.org/2000/svg" version="1.1" viewBox="0 0 5 12">
 <g transform="translate(0 -.11514)">
  <path style="block-progression:tb;text-indent:0;color:#000000;text-transform:none" d="m4.75 4.5428c-0.017-0.0714-0.0556-0.1376-0.1094-0.1875l-1.875-1.875-0.2656-0.25-0.26562 0.25-1.875 1.875c-0.06894 0.0699-0.10908 0.1674-0.1094 0.2656v0.015625 0.03125 0.32812h0.28125 0.046875c0.11834 0.0179 0.24422-0.024 0.32813-0.1094l1.5938-1.5937 1.6094 1.5937c0.069545 0.069441 0.16735 0.10971 0.26562 0.10938h0.078125 0.29688v-0.29688-0.046875-0.03125-0.046875z"/>
  <path style="block-progression:tb;text-indent:0;color:#000000;text-transform:none" d="m4.75 7.6875c-0.017 0.0714-0.0556 0.1375-0.1094 0.1875l-1.875 1.875-0.2656 0.25-0.2656-0.25-1.875-1.875c-0.06894-0.0699-0.10908-0.1674-0.1094-0.2656v-0.015625-0.03125-0.32812h0.28125 0.04687c0.11834-0.018 0.24422 0.024 0.32812 0.1094l1.5938 1.5937 1.6094-1.5937c0.0695-0.0695 0.1673-0.1098 0.2656-0.1094h0.07813 0.29688v0.29688 0.046875 0.03125 0.046875z"/>
 </g>
</svg>
